X: 463
%%etbk:tnset id:209,pos:1,rep:3,ant:
%%etbk:pldat 2016-06-09T18:54,2016-06-08T16:12,2016-06-07T16:16,2016-06-06T18:27,2016-06-02T18:42,2016-06-01T17:19,2016-06-01T17:17,2016-05-31T17:38,2016-02-04T19:21,2016-02-03T16:32,2016-02-02T17:24,2016-02-01T18:45,2016-01-30T13:36,2016-01-27T16:35,2016-01-26T16:44,2016-01-21T18:29,2016-01-20T16:48,2016-01-19T17:38,2016-01-18T18:39,2016-01-17T13:27,2015-02-22T13:21,2015-02-01T13:56,2015-01-14T16:43,2015-01-10T14:53,2015-01-08T18:17,2015-01-07T15:57,2015-01-05T18:48,2014-10-16T18:53,2014-10-14T18:16,2014-10-11T13:11,2014-09-16T17:46,2014-09-13T13:14,2014-08-14T18:49,2014-08-13T18:52,2014-08-11T18:57,2014-08-10T13:40,2014-08-06T19:12,2014-08-03T15:52,2014-08-02T15:00,2014-07-26T15:33,2014-07-22T18:55,2014-07-20T14:24,2014-07-16T18:16,2014-07-04T11:27,2014-07-02T12:00,2014-06-30T11:21,2014-06-20T15:48,2014-06-19T18:42,2014-06-17T18:31,2014-06-15T11:28,2014-06-09T14:36,2014-06-05T18:21,2014-06-01T10:29,2014-05-28T13:14,2014-05-17T15:10,2014-04-12T11:43,2014-04-08T16:35,2014-04-06T11:19,2014-04-03T19:08,2014-03-26T16:15,2014-01-30T18:21,2014-01-29T16:25,2014-01-28T16:58,2014-01-18T16:50,2014-01-14T19:10,2014-01-12T14:28,2014-01-03T15:57,2013-12-29T12:03,2013-12-28T14:22,2013-12-26T14:00,2013-12-21T17:25,2013-12-18T16:46,2013-12-11T17:04,2013-12-10T18:09,2013-12-08T15:00
T: Green Fields of France
H: Created 2013-02-19 /  Modified 2013-12-08
P: B1-S-B1-S-B1-S(Solo)-S-B2-B1                % play the parts in this order
%%score (M1) (M2)
V:M1  clef=treble  
V:M2  clef=treble    
M: 3/4
R: song
L: 1/8
K: Fmaj
%            End of header, start of tune body:
P:Intro, Bridge 1 (B1) 
[V:M1] "F"!5!A4 G2| "dm"!3!F4 E2 | "B" !1!D6 | -!2!D2-DCD!3!F|"C"!4!G6| -G4 FE| "F"F6| -F2 z4|
[V:M2] !3!!5![F4A] [E2G] | !1!!3![D4F] !1!!3![C2E] | !1!!2![B,6D] | -[B,6D]|  !1!!4![C6F] | !1!!3!-[C6E] | !1!!4![C6F]| -[C2F] z4 |
P:Song (S) 
[V:M1] !1!A,!2!B,|"F"!3!C4 !2!C2| "dm"!5!F4 E2|"gm"!3!D4 B,2|!1!G,4 !4!F2|"C"!2!E4 F2|!4!G2A2G2|"B"!3!F2 !1!B,2 !3!D2|"F"!2!C4 !1!A,!2!B,|
[V:M2] z2 |[A,6C]| !3!!5![D4F] !2!!4![C2E] | !1!!3![B,6D] | -[B,6D] | [C6E] | -[C6E] | [B,6D] | [A,6C] |
[V:M1] "F"!3!C4 !2!C2| "dm"!5!F4 E2|"gm"!3!D4 B,2|!1!G,4 !4!F2|"C"!2!E4 F2|!4!G2A2G2|"B"F2 F2 G2|"F"F4 AB|
[V:M2] [A,6C]| [D4F] [C2E] | [B,6D] | -[B,6D] | [C6E] | -[C6E]  |[D6F]| [C6F] |
[V:M1]"F"!5!c4 c2 | "dm"c2 B2 A2|"gm"!2!G2 G2 A2|!4!B6|"C"!2!G4 A2|B2 A2 G2|"dm"F2 G2 A2|"C"G6| -G6 |
[V:M2] [F4A] [E2G] | [D4F] [C2E] | [B,6D] | -[B,6D] | [C6F] |  -[C6E] | [D6F] | [C6G]| -[C6G]|
[V:M1]"F"c4c2|"dm"c2 B2 A2|"gm"G2 G2 F2|"B"D4 F2|"C"[E4G] [F2A]|[G4B] AG|1 "Verse 1-3""B"F2 F2 G2|"F"F4 EF|2 "Verse 4""B"F4FF |F4FF| F2z4|
[V:M2] [F4A] [E2G] | [D4F] [C2E] | [B,6D] | -[B,6D] | [C6F] |  -[C6E] |1 [B,6F] | [A,6F] |2"B"[B,6F] -|[B,6F]| -[B,6F]|
[V:M1]"C"G4 G2|G2 A2 B2|"B,"B3c B2|"F"A2 F4|"C"G4 G2|G2 z2B2|"B"B3c B2|"C"G6| -G6|
[V:M2] !1!!3![C6G] |  !1!!2!-[C6G] |  !2!!4![F6B] |  !1!!4![C2A] !1!!2!-[C4F] | !1!!3![C6G] |  -[C2G] z4 | !2!!4![F6B]| !1!!3![C6G] |  -[C6G] |
[V:M1]"B"!4!B4 B2|B3 c B2|"F"!3!A6|"dm"-A4G2| !1!F2 G2A2|A2 B2 A2|"C"!2!G3G !1!F!2!E|"F"!3!F6|-F2 z4|
[V:M2] !2!!4![F6B] | -[F6B] | !1!!4![C6A] | !1!!4!-[D6A] | !1!!2![D6F] | -[D6F]|!1!!4![C6G]| [C6F]  |  -[C2F] z4 |
P: Bridge 2 (B2) 
[V:M1] |:"C"z6| z6 | "B" z6|"F" z6| "C"z6| z6 | "B" z6|"F" z6 :|
[V:M2] |:!1!!5![C6G] | -[C6G] | !1!!4![B,6F] | !1!!3![C6F] |!1!!5![C6G] | -[C6G] | !1!!4![B,6F] | !1!!3![C6F] :|


